X: 1
T:Scotland the Brave
M:C
L:1/8
Q:80
C:arr. David Williams
S:Reel
K:HP
[| e2|
{g}A{d}A{e}AB{d}c{e}A{d}ce|
a{g}a{g}agae{g}c{d}A|  !
{gdedc}d2fd{g}ce{g}c{d}A|
{g}Be{A}ef{g}ed{g}cB| |
{g}A{d}A{e}AB{d}c{e}A{d}ce|  !
a{g}a{g}agae{g}c{d}A|
{gdedc}d2fd{g}ce{g}c{d}A|
{g}B{d}A{e}A{d}B{gAGAG}A2|] |  !
{g}ce|
a{g}a{g}agae{g}c{d}A|
a{g}a{g}agae{g}ce|  !
a{g}a{g}ag{a}fa{g}ag|
{a}fa{f}gf{g}ed{g}cB| |
{g}A{d}A{e}AB{d}c{e}A{d}ce|  !
a{g}a{g}agae{g}c{d}A|
{gdedc}d2fd{g}ce{g}c{d}A|
{g}B{d}A{e}A{d}B{gAGAG}A2|]  !
